X: 1568
T: Jack Heagney's 2nd Schottische
B: australian traditional tunes wiki
M:4/4
L:1/8
R: Schottische
Q: 1/4=100
K:G
V:1 
D|"G"G2G2B2B2|"D7"d2d2 "G"B2-B>B|"C"c2c2"A7"A>G A>B|"D7"A>F "A7"((3GFE) "D7"D2 ((3DEF)|
"G"G2G2B2B2|"D7"d2d2"G"B4|"Am"A>B ((3cBA) "D7"F>D E>F|"G"G2G2G2-G>B||
"C"c>c ((3cBc)e2c2|"G"B>B ((3BAB) d2B2|"D7"A>A ((3ABA) c2A2|"G"((3GFG) "D7"((3ABc) "G"d2B2|
"C"c>c ((3cBc)e2c2|"G"B>B ((3BAB) d2B2|"D7"A>A ((3ABA) c>A ((3DEF)|"G"G2G2G4||
% abcbook-tune_id 6342d53a4f6c1a381c89a93d


% abcbook-boost 0
% abcbook-tablature 
% abcbook-transpose 
% abcbook-lastupdated 1665324371465
% abcbook-soundfonts 
% abcbook-repeats 1
% NFF Book 2016

